packages/core/src/svgs/tokens/mono/SDL.svg

<svg width="24" height="24" viewBox="0 0 24 24" fill="none" xmlns="http://www.w3.org/2000/svg">
<path d="M2 12C2 9.34785 3.05357 6.80429 4.92892 4.92892C6.80429 3.05357 9.34785 2 12 2C14.6522 2 17.1957 3.05357 19.071 4.92892C20.9464 6.80429 22 9.34785 22 12C22 14.6522 20.9464 17.1957 19.071 19.071C17.1957 20.9464 14.6522 22 12 22C9.34785 22 6.80429 20.9464 4.92892 19.071C3.05357 17.1957 2 14.6522 2 12ZM12 3.17647C7.05292 3.17647 3.17647 7.05292 3.17647 12C3.17647 16.9471 7.05292 20.8235 12 20.8235C16.9471 20.8235 20.8235 16.9471 20.8235 12C20.8235 7.05292 16.9471 3.17647 12 3.17647Z" fill="white"/>
<path d="M11.9884 20.2118L7.64722 16.1294L9.48253 14.3824L11.9884 20.2118Z" fill="white"/>
<path d="M9.17668 6.48822C9.00608 6.64116 6.91197 8.05293 7.35315 10.4647C7.55903 11.5765 8.85903 12.7706 9.93552 13.9824C11.459 15.7059 11.7473 16.1648 12.0119 16.7941C12.6591 18.3353 12.0885 19.9118 12.0061 20.2353C12.0061 20.2353 13.3766 19.2294 13.6414 17.8824C13.8591 16.7529 13.8061 16.4588 13.7178 15.9471C13.5002 14.7118 12.559 13.6824 11.459 12.547C10.3708 11.4177 10.2708 11.3529 9.47077 10.353C9.00021 9.7647 8.72961 9.19999 8.71197 8.47058C8.69432 7.40588 9.31787 6.35293 9.17079 6.48822H9.17668Z" fill="white"/>
<path d="M10.2296 5.45888C10.2296 5.45888 10.2884 5.53536 10.4119 5.57653C10.5766 5.63536 10.8237 5.64712 11.0179 5.45888C11.1943 5.30006 11.1884 5.05889 11.1296 4.91182C11.0825 4.79418 11.0002 4.73535 11.0002 4.73535L11.1119 4.61771C11.1119 4.61771 11.1531 4.68241 11.2532 4.72948C11.412 4.79418 11.7002 4.83536 11.9295 4.58241C12.0942 4.40594 12.059 4.18242 11.9884 4.04712C11.9413 3.95889 11.8884 3.89419 11.8826 3.8883L12.0119 3.76477L16.4002 7.92359L15.7885 8.47654C15.7885 8.47654 15.2414 7.84124 14.6531 7.81182C14.352 7.78505 14.0483 7.80489 13.7531 7.87065C13.4355 7.94124 13.2649 8.01771 12.8825 7.82948C12.4002 7.58829 12.412 7.09417 12.4179 6.83535C12.4296 6.62947 12.3237 6.51183 12.1766 6.50594C12.0473 6.50594 11.912 6.54712 11.8826 6.74712C11.8237 7.15889 11.8826 7.42947 12.2061 7.92359C12.5178 8.38829 13.7355 9.51181 14.1355 9.95294C14.5707 10.4236 14.9297 10.6825 15.6061 11.5824C16.0767 12.1942 16.706 13.0707 16.706 14.1413C16.706 14.953 16.4532 15.4471 16.1238 16.0589C15.7522 16.6286 15.3072 17.1467 14.8002 17.6001C14.8178 17.5589 15.1767 16.5059 15.1119 15.2178C15.0296 13.6119 13.5297 12.353 12.7002 11.4177C12.0237 10.6647 11.4297 10.0883 10.7531 9.20593C9.58839 7.68829 10.2237 5.45888 10.2237 5.45888H10.2296Z" fill="white"/>
</svg>

<svg xmlns="http://www.w3.org/2000/svg" width="24" height="24" fill="none" viewBox="0 0 24 24">
    <path fill="#fff" d="M2 12a10 10 0 1 1 20 0 10 10 0 0 1-20 0m10-8.824c-4.947 0-8.824 3.877-8.824 8.824S7.053 20.824 12 20.824s8.824-3.877 8.824-8.824S16.947 3.176 12 3.176"/>
    <path fill="#fff" d="m11.988 20.212-4.34-4.083 1.835-1.747z"/>
    <path fill="#fff" d="M9.177 6.488c-.17.153-2.265 1.565-1.824 3.977.206 1.111 1.506 2.306 2.583 3.517 1.523 1.724 1.811 2.183 2.076 2.812.647 1.541.076 3.118-.006 3.441 0 0 1.37-1.006 1.635-2.353.218-1.13.165-1.423.077-1.935-.218-1.235-1.159-2.265-2.259-3.4-1.088-1.13-1.188-1.194-1.988-2.194C9 9.765 8.73 9.2 8.712 8.471c-.018-1.065.606-2.118.459-1.983z"/>
    <path fill="#fff" d="M10.23 5.459s.058.076.182.118c.165.058.412.07.606-.118.176-.159.17-.4.112-.547-.048-.118-.13-.177-.13-.177l.112-.117s.041.064.141.111a.59.59 0 0 0 .677-.147c.164-.176.129-.4.058-.535a1 1 0 0 0-.105-.159l.129-.123L16.4 7.924l-.611.553s-.548-.636-1.136-.665a3 3 0 0 0-.9.059c-.318.07-.488.147-.87-.042-.483-.24-.471-.735-.465-.994.012-.206-.094-.323-.241-.33-.13 0-.265.042-.294.242-.06.412 0 .682.323 1.177.312.464 1.53 1.588 1.93 2.029.435.47.794.73 1.47 1.63.47.611 1.1 1.488 1.1 2.558 0 .812-.253 1.306-.582 1.918A7.7 7.7 0 0 1 14.8 17.6c.018-.041.377-1.094.312-2.382-.082-1.606-1.582-2.865-2.412-3.8-.676-.753-1.27-1.33-1.947-2.212-1.165-1.518-.53-3.747-.53-3.747z"/>
</svg>
